F[BALLADE
CUT[Braut - Werbung (Hildesage)
    Bie vrie ischt auf der Gruvenshuhn!]
CNR[Bie vrie ischt auf der Gruvenshuhn!]
REG[Suedosteuropa, Jugoslawien, Gottschee, Buehel]
SRC[1, S. 27
    1906 aufgezeichnet]
KEY[Q0003  16  G 2/4]
MEL[12  3_3_3_2_  3_2_1_
    4_  3_2_1_-6_  -7_-6_-5__
    1_-5_1_2_  3__314_  3__0_ //] >>
FCT[Ballade, Braut - Werbung]
CMT[Letzte Zeile = Refrain auf sinnfreie Silben.]
